!!!OTL: IHR TAEUBCHEN KOMMT ALLE ZU MIR
!!!ARE: Europa, Mitteleuropa, Deutschland, Kassel
!!!SCT: K2401
!!!YEM: Copyright 1995, estate of Helmut Schaffrath.
**kern
*ICvox
*Ivox
*M6/8
*k[f#]
*e:
{8cn
=1
8gn
8gn
8gn
8a
8a
8a
=2
8gn
8gn
8f#
4e}
{8a
=3
4gn
8f#
4e
8a
=4
4gn
8f#
4e}
{8a
=5
4gn
8f#
4e
8a
=6
4.gn
4e}
{8a
=7
4gn
8f#
4e
8a
=8
4.gn
4e}
{8a
=9
4gn
8f#
4e
8a
=10
4gn
8f#
4e}
{8a
=11
4gn
8f#
4e
8a
=12
4gn
8f#
4e}
{8cn
=13
8gn
8gn
8gn
8a
8a
8a
=14
8gn
8gn
8f#
4e}
==
!!!AGN: Kinder - Lied, Tanz -, Lauf - Spiel
!!!ONB: ESAC (Essen Associative Code) Database: KINDER
!!!AMT: compound duple
!!!AIN: vox
!!!EED: Helmut Schaffrath
!!!EEV: 1.0
*-
